agir/front/components/genericComponents/logos/twitter.svg

<svg width="24" height="20" viewBox="0 0 24 20" fill="none" xmlns="http://www.w3.org/2000/svg">
<path d="M7.54787 19.9851C16.6051 19.9851 21.5579 12.303 21.5579 5.64157C21.5579 5.42337 21.5535 5.20616 21.544 4.98992C22.5054 4.27833 23.3411 3.3903 24.0002 2.37942C23.1179 2.78092 22.1684 3.05122 21.1724 3.17309C22.1891 2.54897 22.9696 1.56167 23.3377 0.384688C22.3864 0.962124 21.3328 1.38181 20.211 1.60836C19.3124 0.628442 18.0332 0.015625 16.6167 0.015625C13.8974 0.015625 11.6923 2.27328 11.6923 5.05627C11.6923 5.45187 11.7355 5.83667 11.82 6.20573C7.72741 5.99491 4.09855 3.98887 1.67019 0.938539C1.24731 1.68355 1.00346 2.54897 1.00346 3.47237C1.00346 5.22139 1.87276 6.76548 3.1947 7.66874C2.38684 7.64318 1.62795 7.41614 0.964581 7.03823C0.963856 7.05938 0.963859 7.08 0.963859 7.1026C0.963859 9.54405 2.66116 11.5825 4.91432 12.0445C4.50055 12.16 4.06519 12.2219 3.6159 12.2219C3.2991 12.2219 2.99045 12.19 2.69044 12.131C3.31733 14.1341 5.13513 15.5916 7.29036 15.6324C5.60505 16.9849 3.48198 17.7903 1.17458 17.7903C0.777614 17.7903 0.385446 17.7672 0 17.7205C2.17924 19.1506 4.76696 19.9851 7.54812 19.9851" fill="#1DA1F2"/>
</svg>

<svg width="24" height="20" fill="none" xmlns="http://www.w3.org/2000/svg"><path d="M7.548 19.985c9.057 0 14.01-7.682 14.01-14.343 0-.219-.005-.436-.014-.652A10.15 10.15 0 0 0 24 2.38a9.642 9.642 0 0 1-2.828.793A5.04 5.04 0 0 0 23.338.385a9.736 9.736 0 0 1-3.127 1.223A4.866 4.866 0 0 0 16.617.016c-2.72 0-4.925 2.257-4.925 5.04 0 .396.043.78.128 1.15C7.727 5.995 4.099 3.989 1.67.939a5.12 5.12 0 0 0-.667 2.533A5.07 5.07 0 0 0 3.195 7.67a4.802 4.802 0 0 1-2.23-.63l-.001.064c0 2.441 1.697 4.48 3.95 4.941a4.822 4.822 0 0 1-2.224.087c.627 2.003 2.445 3.46 4.6 3.501A9.733 9.733 0 0 1 0 17.721a13.704 13.704 0 0 0 7.548 2.264" fill="#1DA1F2"/></svg>
